X: 551
T: Black Mathew.
T: ma.ta du.b.
N:"With spirit." "Collected from O'Brien."
B:O'Neill's 551
Z:Transcribed by J.B. Walsh (wals@math.ubc.ca)
M:6/8
L:1/8
K:Gm
F|F>=EF .D(E^F)|(.G.G.G) G2 A|BAG AFD|D(=E^F) G2 A|.B.A.G FDC|
.D(DC) B,2 (B,/D/)|BAG FDC|.D(.DC).B,2 (B,/C/)|DGG G2 ^F|DGG G2||


